X:442
T:Scapa Flow
C:James S C Johnstone, Orkney
D:Parlophone E4070 (78rpm)
Z:Nigel Gatherer
M:4/4
L:1/8
K:D
A2 | D3  E F2 A2 | G2 B2 A2 g2 | fedc  BAGF  | E2 A2 C2 A,2 |
     D3  E F2 A2 | G2 B2 A2 g2 | fedc  Bcde  | f2 d2 d2    :|
ag | f2 d2 a2 d2 | b2 d2 a2 d2 | c2 BA e2 A2 | g2 e2 c2 A2  |
     d3  e f2 d2 | a2 d2 f2 d2 | efga  gfeg  | f2 d2 d2 A2  |
     d3  e f2 d2 | a2 d2 f2 d2 | c2 BA e2 A2 | g2 e2 c2 A2  |
     D3  E F2 A2 | G2 B2 A2 g2 | fedc  Bcde  | f2 d2 d2   :|]
